X:687
T:Mrs. Colonel Forbes
R:Strathspey
C:William Marshall
B:The Athole Collection
M:C
L:1/8
K:C
e|c2 G>E D>dd>B|c<G A>G c2 c>e|c>G A/G/F/E/ D>dd>e|C<C E>G c2c:|
e|c>ge>g a/g/f/e/ d>e|c<g e>g c<ge<g|f<ae<g d>c d<e|G<c c>d e2 d>e|
c>ge>g a/g/f/e/ d>e|c<ge<g c<af<a|g<c'e<g d>c d<e|G<c c>d e2d||

